X: 38705
T: Stray Cat, The
R: jig
M: 6/8
K: Dmixolydian
c|:dcA AGE|GAG EDC|A,DD CDE|EDC DEG|
dcA AGE|GAG EDC|A,DD CDE|EDC D3:|
|:d^cd fed|faf ged|c2 A BAG|AdB cAG|
d^cd fed|faf ged|c2 A BAG|EDC D3:|

